X: 41485
T: Tyrkky
R: polka
M: 2/4
K: Amajor
A/|df ec/B/|AA/A/ A/B/c/d/|ef/g/ a/g/f/e/|df e>e|
Af ec/B/|AA/A/ A/B/c/d/|e/d/c/B/ AG|BG A>:|
|:A|dA df|ec A>c|ef/^g/ Bg|fe/^d/ e>e|
df df|ec A>c|e/d/c/B/ AG|BG A>:|
|:G|F~c Bc|F~c Bc|fc fc|cc/d/ c/B/A/G/|
[1 F~c Bc|dF d>f|ec d/c/B/A/|A/G/B/G/ A3/2:|
[2 F~c Bc|Fd Ge|AA/B/ d/c/B/A/|A/G/B/G/ A>||

